storage/app/icons/phosphoricons/thin/soundcloud-logo-thin.svg

<svg xmlns="http://www.w3.org/2000/svg" fill="currentColor" viewBox="0 0 256 256"><path d="M20 120v48a4 4 0 0 1-8 0v-48a4 4 0 0 1 8 0m28-28a4 4 0 0 0-4 4v96a4 4 0 0 0 8 0V96a4 4 0 0 0-4-4m32-8a4 4 0 0 0-4 4v104a4 4 0 0 0 8 0V88a4 4 0 0 0-4-4m32-32a4 4 0 0 0-4 4v136a4 4 0 0 0 8 0V56a4 4 0 0 0-4-4m107.27 57.46A76 76 0 0 0 144 44a4 4 0 0 0 0 8 67.75 67.75 0 0 1 67.66 61.13 4 4 0 0 0 3.22 3.53A36 36 0 0 1 208 188h-64a4 4 0 0 0 0 8h64a44 44 0 0 0 11.27-86.54"/></svg>

<svg xmlns="http://www.w3.org/2000/svg" viewBox="0 0 256 256" fill="currentColor"><path d="M20,120v48a4,4,0,0,1-8,0V120a4,4,0,0,1,8,0ZM48,92a4,4,0,0,0-4,4v96a4,4,0,0,0,8,0V96A4,4,0,0,0,48,92Zm32-8a4,4,0,0,0-4,4V192a4,4,0,0,0,8,0V88A4,4,0,0,0,80,84Zm32-32a4,4,0,0,0-4,4V192a4,4,0,0,0,8,0V56A4,4,0,0,0,112,52Zm107.27,57.46A76,76,0,0,0,144,44a4,4,0,0,0,0,8,67.75,67.75,0,0,1,67.66,61.13,4,4,0,0,0,3.22,3.53A36,36,0,0,1,208,188H144a4,4,0,0,0,0,8h64a44,44,0,0,0,11.27-86.54Z"/></svg>
